src/assets/clients/24vision.svg

<svg xmlns="http://www.w3.org/2000/svg" viewBox="0 0 81 110"><g fill="#002a10"><path d="M18.41 0h3.75c6.72 1.1 12.63 6.37 13.73 13.21 1.71 8.35-4.35 17.32-12.81 18.65-9.13 2.04-18.73-5.52-18.95-14.85C3.4 8.66 10.2.96 18.41 0ZM37.22 0h5.54c7.88 1.31 15.29 6.09 18.83 13.39 3.75 6.94 2.5 15.04 2.69 22.59.11 7.85-3.66 15.69-10.11 20.23-4.83 3.69-10.99 4.89-16.96 4.76.08-6.65-.06-13.31-.28-19.96.5-13.66.2-27.34.29-41.01ZM64.73 61.57c3.72.06 7.5-.41 11.16.4 2.88.79 4.35 3.61 5.11 6.27v10.34c-.74 2.68-2.26 5.5-5.14 6.3-3.65.81-7.42.31-11.13.39-.03-7.9-.03-15.8 0-23.7Z"/></g><g fill="#1f893c"><path d="M.01 60.98C11.96 48.82 24.18 36.93 36.3 24.94c-.02 12.03.02 24.07 0 36.1-12.09.24-24.2.34-36.29-.06ZM0 61.63c16.35.51 32.7-.11 49.05.01-7.07 7.09-14.09 14.22-21.12 21.33-1.09 1-2.2 2.35-3.86 2.15-8.02.08-16.05-.02-24.07.02V61.63ZM26.73 85.19c7.53-8.04 15.53-15.63 23.23-23.5 4.72-.03 9.44-.03 14.16 0-.01 7.9-.01 15.81 0 23.71-12.46-.21-24.93-.08-37.39-.21ZM27.34 85.77c7.81-.02 15.63-.04 23.44.02.04 8.07.02 16.14.02 24.21H26.32c.22-8.08.62-16.16 1.02-24.23Z"/></g></svg>

<?xml version="1.0" encoding="UTF-8" ?>
<!DOCTYPE svg PUBLIC "-//W3C//DTD SVG 1.1//EN" "http://www.w3.org/Graphics/SVG/1.1/DTD/svg11.dtd">
<svg width="81pt" height="110pt" viewBox="0 0 81 110" version="1.1" xmlns="http://www.w3.org/2000/svg">
<g id="#002a10ff">
<path fill="#002a10" opacity="1.00" d=" M 18.41 0.00 L 22.16 0.00 C 28.88 1.10 34.79 6.37 35.89 13.21 C 37.60 21.56 31.54 30.53 23.08 31.86 C 13.95 33.90 4.35 26.34 4.13 17.01 C 3.40 8.66 10.20 0.96 18.41 0.00 Z" />
<path fill="#002a10" opacity="1.00" d=" M 37.22 0.00 L 42.76 0.00 C 50.64 1.31 58.05 6.09 61.59 13.39 C 65.34 20.33 64.09 28.43 64.28 35.98 C 64.39 43.83 60.62 51.67 54.17 56.21 C 49.34 59.90 43.18 61.10 37.21 60.97 C 37.29 54.32 37.15 47.66 36.93 41.01 C 37.43 27.35 37.13 13.67 37.22 0.00 Z" />
<path fill="#002a10" opacity="1.00" d=" M 64.73 61.57 C 68.45 61.63 72.23 61.16 75.89 61.97 C 78.77 62.76 80.24 65.58 81.00 68.24 L 81.00 78.58 C 80.26 81.26 78.74 84.08 75.86 84.88 C 72.21 85.69 68.44 85.19 64.73 85.27 C 64.70 77.37 64.70 69.47 64.73 61.57 Z" />
</g>
<g id="#1f893cff">
<path fill="#1f893c" opacity="1.00" d=" M 0.01 60.98 C 11.96 48.82 24.18 36.93 36.30 24.94 C 36.28 36.97 36.32 49.01 36.30 61.04 C 24.21 61.28 12.10 61.38 0.01 60.98 Z" />
<path fill="#1f893c" opacity="1.00" d=" M 0.00 61.63 C 16.35 62.14 32.70 61.52 49.05 61.64 C 41.98 68.73 34.96 75.86 27.93 82.97 C 26.84 83.97 25.73 85.32 24.07 85.12 C 16.05 85.20 8.02 85.10 0.00 85.14 L 0.00 61.63 Z" />
<path fill="#1f893c" opacity="1.00" d=" M 26.73 85.19 C 34.26 77.15 42.26 69.56 49.96 61.69 C 54.68 61.66 59.40 61.66 64.12 61.69 C 64.11 69.59 64.11 77.50 64.12 85.40 C 51.66 85.19 39.19 85.32 26.73 85.19 Z" />
<path fill="#1f893c" opacity="1.00" d=" M 27.34 85.77 C 35.15 85.75 42.97 85.73 50.78 85.79 C 50.82 93.86 50.80 101.93 50.80 110.00 L 26.32 110.00 C 26.54 101.92 26.94 93.84 27.34 85.77 Z" />
</g>
</svg>
